svgs/sharp-regular/wand-sparkles.svg

<svg xmlns="http://www.w3.org/2000/svg" viewBox="0 0 512 512"><!--! Font Awesome Pro 7.1.0 by @fontawesome - https://fontawesome.com License - https://fontawesome.com/license (Commercial License) Copyright 2025 Fonticons, Inc. --><path fill="currentColor" d="M144 476.1L112 512C62.7 462.7 10.3 410.3 0 400 19.9 382.3 51.9 353.7 96 314.3l0-58.3 65.3 0 286.7-256 64 64-64 71.7 0 56.3-50.3 0-253.7 284.1zM444.7 67.3L69.9 402 110 442.1 444.7 67.3zM432 448l-24-56-56-24 56-24 24-56 24 56 56 24-56 24-24 56zM56 168l-56-24 56-24 24-56 24 56 56 24-56 24-24 56-24-56zM208 96l-16-32-32-16 32-16 16-32 16 32 32 16-32 16-16 32z"/></svg>

<svg xmlns="http://www.w3.org/2000/svg" viewBox="0 0 512 512"><!--! Font Awesome Pro 6.6.0 by @fontawesome - https://fontawesome.com License - https://fontawesome.com/license (Commercial License) Copyright 2024 Fonticons, Inc. --><path d="M144 476.1L112 512 78 478 34 434 0 400l35.9-32L96 314.3 96 256l65.3 0L448 0l64 64-64 71.7 0 56.3-50.3 0L144 476.1zM444.7 67.3L69.9 402 110 442.1 444.7 67.3zM432 448l-24-56-56-24 56-24 24-56 24 56 56 24-56 24-24 56zM56 168L0 144l56-24L80 64l24 56 56 24-56 24L80 224 56 168zM208 96L192 64 160 48l32-16L208 0l16 32 32 16L224 64 208 96z"/></svg>
